resource/upgrade.svg

<svg clip-rule="evenodd" fill-rule="evenodd" height="14" stroke-linejoin="round" stroke-miterlimit="2" viewBox="-1 -1 37 37" width="14" xmlns="http://www.w3.org/2000/svg"><circle cx="17.5" cy="17.5" fill="#fff" r="18.5"/><path d="m17.5 0c9.659 0 17.5 7.841 17.5 17.5s-7.841 17.5-17.5 17.5-17.5-7.841-17.5-17.5 7.841-17.5 17.5-17.5zm-3.078 15.777h-5.716l8.794-8.794 8.794 8.794h-5.716v10.937h-6.156z" fill="#fbc02d"/></svg>

<?xml version="1.0" encoding="UTF-8" standalone="no"?>
<!DOCTYPE svg PUBLIC "-//W3C//DTD SVG 1.1//EN" "http://www.w3.org/Graphics/SVG/1.1/DTD/svg11.dtd">
<svg width="14" height="14" viewBox="-1 -1 37 37" version="1.1" xmlns="http://www.w3.org/2000/svg" xmlns:xlink="http://www.w3.org/1999/xlink" xml:space="preserve" xmlns:serif="http://www.serif.com/" style="fill-rule:evenodd;clip-rule:evenodd;stroke-linejoin:round;stroke-miterlimit:2;">
    <circle cx="17.5" cy="17.5" r="18.5" fill="white"/>
    <path d="M17.5,0C27.159,0 35,7.841 35,17.5C35,27.159 27.159,35 17.5,35C7.841,35 0,27.159 0,17.5C0,7.841 7.841,0 17.5,0ZM14.422,15.777L8.706,15.777L17.5,6.983L26.294,15.777L20.578,15.777L20.578,26.714L14.422,26.714L14.422,15.777Z" style="fill:rgb(251,192,45);"/>
</svg>
